X: 233
T:Scholion of Seikilos
M:6/8
L:1/8
Q:3/8=44
K:AMix
Ae2 e3   |(cde)  d3  |c2d e(dc)|cA2 (BG2)  |
Ace d(cd)| cA2  (BG2)|AcB dec  |AA2  A(FE)|]

And here's what may be the oldest known example of a misleading final, in
a dorian/minor/phrygian pentatonic tune from ancient China (the tonal
centre is obviously D):

